icons/nuxt.svg

<svg width="16" height="16" viewBox="0 0 16 16" fill="none" xmlns="http://www.w3.org/2000/svg">
<path fill-rule="evenodd" clip-rule="evenodd" d="M6.5 6.11256L3.53691 11.5H6.84375L8.16814 9.14553L6.5 6.11256ZM11.175 11.5L9.88455 9.15373L10.5 8.05959L12.4352 11.5H11.175ZM7.70985 13H10.3087H13.2902C14.055 13 14.5367 12.1763 14.1617 11.5097L11.3716 6.54947C10.9893 5.86982 10.0107 5.86982 9.62842 6.54947L9.03371 7.60674L7.37622 4.59312C6.99629 3.90234 6.00371 3.90234 5.62378 4.59312L1.81505 11.5181C1.44851 12.1845 1.93067 13 2.69127 13H7.70985Z" fill="#52C38F"/>
</svg>

<svg xmlns="http://www.w3.org/2000/svg" width="16" height="16" fill="none"><path fill="#52C38F" fill-rule="evenodd" d="M6.5 6.113 3.537 11.5h3.307l1.324-2.354L6.5 6.113Zm4.675 5.387-1.29-2.346.615-1.094 1.935 3.44h-1.26ZM7.71 13h5.58a1 1 0 0 0 .872-1.49l-2.79-4.96a1 1 0 0 0-1.744 0l-.594 1.057-1.658-3.014a1 1 0 0 0-1.752 0l-3.809 6.925A1 1 0 0 0 2.691 13H7.71Z" clip-rule="evenodd"/></svg>
